dist/icons/svgs/wifi-solid.svg

<svg xmlns="http://www.w3.org/2000/svg" width="24" height="24" fill="currentcolor" class="icon-wifi-solid" viewBox="0 0 24 24">
  <path d="M3.02432 9.92969C2.53682 10.4375 1.78682 10.3984 1.29932 9.89062C0.849315 9.42188 0.886816 8.60156 1.33682 8.13281C4.37432 5.125 8.46183 3.25 12.9993 3.25C17.4993 3.25 21.5869 5.125 24.6244 8.13281C25.0744 8.60156 25.1119 9.42188 24.6619 9.89062C24.1744 10.3984 23.4244 10.4375 22.9369 9.92969C20.3494 7.35156 16.8618 5.75 12.9993 5.75C9.09933 5.75 5.61182 7.35156 3.02432 9.92969ZM12.9993 12C10.8618 12 8.91183 12.8594 7.41183 14.1875C6.92433 14.6562 6.17433 14.6172 5.72433 14.1094C5.31182 13.5625 5.34932 12.7812 5.83683 12.3125C7.74933 10.5938 10.2618 9.5 12.9993 9.5C15.7368 9.5 18.2119 10.5938 20.1244 12.3125C20.6119 12.7812 20.6869 13.5625 20.2369 14.1094C19.7869 14.6172 19.0369 14.6562 18.5494 14.1875C17.0493 12.8594 15.0993 12 12.9993 12ZM15.3993 18.25C15.3993 19.1484 14.9118 19.9688 14.1993 20.4375C13.4493 20.8672 12.5118 20.8672 11.7993 20.4375C11.0493 19.9688 10.5993 19.1484 10.5993 18.25C10.5993 17.3906 11.0493 16.5703 11.7993 16.1016C12.5118 15.6719 13.4493 15.6719 14.1993 16.1016C14.9118 16.5703 15.3993 17.3906 15.3993 18.25Z"/>
</svg>

<svg xmlns="http://www.w3.org/2000/svg" width="24" height="24" fill="currentColor" class="icon-wifi-solid" viewBox="0 0 24 24">
  <path d="M3.024 9.93c-.487.508-1.237.468-1.725-.04-.45-.468-.412-1.288.038-1.757C4.374 5.125 8.462 3.25 12.999 3.25c4.5 0 8.588 1.875 11.625 4.883.45.469.488 1.289.038 1.758-.488.507-1.238.547-1.725.039-2.588-2.578-6.075-4.18-9.938-4.18-3.9 0-7.387 1.602-9.975 4.18M13 12c-2.137 0-4.087.86-5.587 2.188a1.157 1.157 0 0 1-1.688-.079c-.412-.546-.375-1.328.113-1.796C7.75 10.593 10.263 9.5 13 9.5s5.213 1.094 7.125 2.813c.488.468.563 1.25.113 1.796-.45.508-1.2.547-1.688.079C17.05 12.859 15.1 12 13 12m2.4 6.25c0 .898-.487 1.719-1.2 2.188-.75.43-1.687.43-2.4 0a2.56 2.56 0 0 1-1.2-2.188c0-.86.45-1.68 1.2-2.148.713-.43 1.65-.43 2.4 0 .713.468 1.2 1.289 1.2 2.148"/>
</svg>
